!!!OTL: 1764. Bayrischer Bauernhimmel.
!!!ARE: Europa, Mitteleuropa, Deutschland, Bayern
!!!SCT: E1764
!!!TXL: @@DE
!!!YEM: Copyright 1995, estate of Helmut Schaffrath.
**kern	**text
*ICvox	*
!! Mixed meters:  4/4; 5/4; 6/8
*M4/4	*
*met(c)	*
*k[f#]	*
*G:	*
!LO:TX:a:t=Vorsänger.	!
!LO:TX:a:t=Bayr. Volkslied.	!
{8d	Nach
=1	=1
4.g	Kreuʒ
8g	und
8g	aus-
8g	-geſtandnen
8g	.
8b/	.
=2	=2
4a	Lei-
4g	-den
!LO:TX:a:t=Chor. Vor.	!
4b/	(ja!)
8r}	.
{8g	er-
=3	=3
4.g	-qui-
8g	-cken
8g	uns
8g	des
8g	Him-
8a	-mels
=4	=4
*M5/4	*
4e	Freuden
4d	.
!LO:TX:a:t=Chor.	!
4a	(ja).
8r}	.
{8d	Drum
8d	will
16d	ich
16d	dann
=5	=5
8a	ſin-
8g	-gen
!LO:TX:a:t=Chor.	!
4cc#	(ja)
8r}	.
{8g	von
8g	himmliſchen
16g	.
16g	.
=6	=6
*M4/4	*
4b/	Dingen,
4a	.
!LO:TX:a:t=Chor.	!
4dd	(ja)
8r}	.
!LO:TX:a:t=Vor.	!
{16bL	die
16ccJ	.
=8	=8
*M6/8	*
8dd	ihr
8b	noch
8gg	ʒu
8ee	ko-
8cc	-ſten
8gg	einſt
=9	=9
4.dd	kriegt,
4r}	.
{8cc	wenn
=10	=10
8b	ihr
8b	den
16b	al-
16b	-ten
8dd	A-
8dd	-dam
!LO:TX:a:t=Wiederholt vom Chor.	!
8a	aus-
=11	=11
4.g	-ʒiecht.
8r	.
8r}	.
{16bL	die
16ccJ	.
=12	=12
8dd	ihr
8b	noch
8gg	ʒu
8ee	ko-
8cc	-ſten
8gg	einſt
=13	=13
4.dd	kriegt,
4r}	.
{8cc	wenn
=14	=14
8b	ihr
8b	den
16b	al-
16b	-ten
8dd	A-
8dd	-dam
8a	aus-
=15	=15
4.g	-ʒiecht.
4r}	.
==	==
!!!AGN: Spott - Lied auf Bauern. +++ Z. 263 dem Metrum angepasst! +++
!!!ONB: ESAC (Essen Associative Code) Database: ERK3
!!!AMT: irregular
!!!AIN: vox
!!!EED: Helmut Schaffrath
!!!EEV: 1.0
!!!GTL: Scherz-, Spiel- und Spottlieder.
!!!URL-scan: https://rosdok.uni-rostock.de/mcrviewer/recordIdentifier/rosdok_ppn745177999/iview2/phys_0554.iview2?x=-4.404412318551749&y=332.51556085655466&scale=0.6456904138606623&rotation=0&layout=singlePageLayout
!!!ENC: Anna Maria Matuszewska
!!!EEV: 2025/08/01
*-	*-
